X:487
T:What About You
C:Alan Pardue (Rambler's Choice, "Sounds of the Mountains")
N:Transcribed by Steve Keating
R:bluegrass
L:1/8
Q:1/4=250
M:4/4
K:E
z2 FG AG FD | E2 EE FG AG | AB BB BB FG | F2 FE FG GF | E2 EE B,A, =G,^G, | E2 F/G/F EG A2 | 
AB Be BB cB | c/e/z e2 Bc ec | BG A2 B/c/z e2 | B/c/z B2 FG ze | BG Be BB cB | 
c/e/z e2 e2 e2 | f/g/a gf ec BG | AG AB B/c/e Bc | Bc B2 FG Be | BG BB G2 =G/^G/F | 
E2 EE FG AG | AB Be BB FG | F2 FE F/G/F EC | E2 EE B,A, =G,^G, | E2 [E2G,2] [EG,][EG,] [E2G,2] | 
z8 | z8 | z8 | 


